src/images/svg/edit-02.svg

<svg width="14" height="14" fill="none" xmlns="http://www.w3.org/2000/svg"><g clip-path="url(#a)"><path d="M10.4999 5.83343 8.1666 3.5001m-6.70835 9.0417 1.97422-.2194c.2412-.0268.3618-.0402.47453-.0767.1-.0324.19518-.0781.28294-.136.09891-.0652.18471-.151.35632-.3226l7.70364-7.70367c.6444-.64433.6444-1.689 0-2.33334-.6443-.64433-1.689-.64433-2.3333 0L2.21293 9.45375c-.17161.17161-.25741.25741-.32264.35633-.05787.08775-.10361.18293-.13599.28292-.03649.1127-.04989.2333-.07669.4745l-.21936 1.9743Z" stroke="#000" stroke-opacity=".8" stroke-width="1.2" stroke-linecap="round" stroke-linejoin="round"/></g><defs><clipPath id="a"><path fill="#fff" d="M0 0h14v14H0z"/></clipPath></defs></svg>

<svg width="14" height="14" viewBox="0 0 14 14" fill="none" xmlns="http://www.w3.org/2000/svg">
<g clip-path="url(#clip0_37400_43)">
<path d="M10.5 5.83343L8.16666 3.5001M1.45831 12.5418L3.43253 12.3224C3.67373 12.2956 3.79433 12.2822 3.90706 12.2457C4.00707 12.2133 4.10224 12.1676 4.19 12.1097C4.28891 12.0445 4.37471 11.9587 4.54632 11.7871L12.25 4.08343C12.8943 3.4391 12.8943 2.39443 12.25 1.75009C11.6057 1.10576 10.561 1.10576 9.91666 1.75009L2.21299 9.45375C2.04138 9.62536 1.95558 9.71116 1.89035 9.81008C1.83248 9.89783 1.78674 9.99301 1.75436 10.093C1.71787 10.2057 1.70447 10.3263 1.67767 10.5675L1.45831 12.5418Z" stroke="black" stroke-opacity="0.8" stroke-width="1.2" stroke-linecap="round" stroke-linejoin="round"/>
</g>
<defs>
<clipPath id="clip0_37400_43">
<rect width="14" height="14" fill="white"/>
</clipPath>
</defs>
</svg>
